!!!COM: Palestrina, Giovanni Perluigi da
!!!OPR: Missa De beata virgine (1570)
!!!OMD: Kyrie
!!!OTL: Christe
**kern	**kern	**kern	**kern
*Itenor	*Icalto	*Icant	*Icant
!Tenor	!Altus	!Cantus 2	!Cantus 1
*clefGv2	*clefG2	*clefG2	*clefG2
*k[b-]	*k[b-]	*k[b-]	*k[b-]
*?:X	*?:X	*?:X	*?:X
*M4/2	*M4/2	*M4/2	*M4/2
=29	=29	=29	=29
0d	1r	0r	0r
.	[1a	.	.
=30	=30	=30	=30
1d	1a]	0r	0r
1c	1a	.	.
=31	=31	=31	=31
1e-	1g	1r	0r
2d	1b-	[1dd	.
4B-	.	.	.
4c	.	.	.
=32	=32	=32	=32
4d	2a	1dd]	0r
4c	.	.	.
4d	4f	.	.
4e	4g	.	.
2f	4a	1dd	.
.	8g	.	.
.	8a	.	.
2g	2b-	.	.
=33	=33	=33	=33
0c	2a	1cc	0r
.	2g	.	.
.	1cc	1ee-	.
=34	=34	=34	=34
1G	2.b-	2.dd	1r
.	4a	4cc	.
2r	4g	4b-	[1dd
.	4f	4a	.
[2g	2g	[2b-	.
=35	=35	=35	=35
2g]	1d	2b-]	1dd]
4f	.	4a	.
4e	.	4g	.
2f	2r	2a	1dd
2g	[2g	2b-	.
=36	=36	=36	=36
2e	2g]	2g	1cc
2f	2.a	1cc	.
1c	.	.	1ee-
.	4g	.	.
.	[2g	2b-	.
=37	=37	=37	=37
1d	2g]	1a	2.dd
.	2f#	.	.
.	.	.	4cc
1G	1g	2r	4b-
.	.	.	4a
.	.	[2g	2b-
=38	=38	=38	=38
2r	1c	2g]	2.cc
2c	.	2a	.
.	.	.	4b-
2d	1r	2f	2a
2B-	.	2g	[2g
=39	=39	=39	=39
2c	1r	2.a	2g]
2d	.	.	2f#
.	.	4b-	.
1e-	2r	4cc	1g
.	.	4b-	.
.	2g	4b-	.
.	.	8a	.
.	.	8g	.
=40	=40	=40	=40
1d	2a	4f	0r
.	.	4g	.
.	2f	4a	.
.	.	4b-	.
2c	4g	2cc	.
.	4a	.	.
2B-	[2b-	[2dd	.
=41	=41	=41	=41
1e-	2b-]	2dd]	1g
.	4a	2cc	.
.	4g	.	.
1d	2f	[1dd	2a
.	2a	.	2f
=42	=42	=42	=42
2r	2b-	0dd]	2g
2d	2f	.	2a
4G	2g	.	1b-
4A	.	.	.
4B-	4d	.	.
4c	4e	.	.
=43	=43	=43	=43
4d	4f	2r	1a
4e	4g	.	.
2.f	2.a	2cc	.
.	.	2dd	1r
4d	4f	.	.
2e-	2g	2b-	.
=44	=44	=44	=44
2c	2a	2cc	1r
2B-	1b-	2dd	.
1c	.	1ee-	2r
.	2a	.	2cc
=45	=45	=45	=45
1g	1b-	2dd	2dd
.	.	2g	2b-
2.f	1r	2a	2cc
.	.	2f	2dd
8e-	.	.	.
8d	.	.	.
=46	=46	=46	=46
1c	0r	2g	1ee-
.	.	2a	.
[1G	.	2.b-	2dd
.	.	.	4g
.	.	4a	4a
=47	=47	=47	=47
0G]	1r	4g	4b-
.	.	4a	4cc
.	.	4b-	2dd
.	.	4cc	.
.	1g	2dd	4b-
.	.	.	4cc
.	.	2b-	4dd
.	.	.	4ee
=48	=48	=48	=48
0r	2a	2cc	1ff
.	2f	1dd	.
.	2g	.	1ee-
.	2a	2cc	.
=49	=49	=49	=49
1r	2.b-	2dd	1dd
.	.	1ff	.
.	4a	.	.
1c	1g	.	2.cc
.	.	2ee	.
.	.	.	4b-
=50	=50	=50	=50
2d	1f	2.ff	2a
2B-	.	.	2dd
.	.	4dd	.
2c	1r	2ee-	2cc
2d	.	[2dd	[2b-
=51	=51	=51	=51
1e-	1g	2dd]	2b-]
.	.	2cc	4a
.	.	.	4g
1d	2a	1dd	2f
.	2f	.	2a
=52	=52	=52	=52
0r	2g	2r	2b-
.	2a	2cc	2a
.	2.b-	2dd	1g
.	.	2b-	.
.	4g	.	.
=53	=53	=53	=53
1r	2a	2cc	2f
.	2b-	1dd	1ff
2r	1g	.	.
2c	.	4cc	2ee
.	.	4b-	.
=54	=54	=54	=54
2d	2f	2a	2.ff
2B-	2b-	2dd	.
.	.	.	4dd
2c	2g	2cc	2ee-
2d	[2b-	2f	[2dd
=55	=55	=55	=55
1e-	4b-]	1g	2dd]
.	4a	.	.
.	1g	.	2cc
1d	.	1a	[1dd
.	2f#	.	.
=56	=56	=56	=56
0G	2g	0b-	0dd]
.	2d	.	.
.	1g	.	.
=57	=57	=57	=57
0d	0f#	0a	0dd
==	==	==	==
*-	*-	*-	*-
!!!CDT: 1525/^1526/-1594/2/2
!!!OCY: Italia
!!!AGN: Mass (Paraphrase)
!!!AST: renaissance, vocal
!!!ASW: Gregorian Mass
!!!PWK: Masses, Book 3
!!!RNB: Cadence finals: G,D,C,E,F
!!!YOR: Le Opere Complete, v. 6, p. 175
!!!YOO: Rome, Italy: Fratelli Scalera
!!!END: 1992//
!!!EED: John Miller
!!!YEC: Copyright 2000, John Miller
!!!YEN: United States of America
!!!YEM: Rights to all derivative electronic formats reserved.
!!!YEM: Refer to licensing agreement for further details.
!!!YEM: This file must be accompanied by the licensing agreement.
!!!YEM: A copy of the licensing agreement may be found at http://www.music-cog.ohio-state.edu/HumdrumDatabases/Palestrina/license.txt
!!!EMD: converted to Humdrum by Bret Aarden
